img/cart-icon.svg

<svg width="15" height="15" viewBox="0 0 15 15" fill="none" xmlns="http://www.w3.org/2000/svg">
<path d="M4.5 15C5.32843 15 6 14.3284 6 13.5C6 12.6716 5.32843 12 4.5 12C3.67157 12 3 12.6716 3 13.5C3 14.3284 3.67157 15 4.5 15Z" fill="#A6A6A6"/>
<path d="M12.5 15C13.3284 15 14 14.3284 14 13.5C14 12.6716 13.3284 12 12.5 12C11.6716 12 11 12.6716 11 13.5C11 14.3284 11.6716 15 12.5 15Z" fill="#A6A6A6"/>
<path d="M15 2H4.07L3.648 0H0V2H2.031L4.016 11H15V9H9.441L15 6.951V2Z" fill="#A6A6A6"/>
</svg>

<svg viewBox="0 0 15 15" xmlns="http://www.w3.org/2000/svg"><g fill="#a6a6a6"><circle cx="4.5" cy="13.5" r="1.5"/><circle cx="12.5" cy="13.5" r="1.5"/><path d="m15 2h-10.93l-.422-2h-3.648v2h2.031l1.985 9h10.984v-2h-5.559l5.559-2.049z"/></g></svg>
